!! 00000] TT[WS
!!!OTL: Shi Duihua
!!!ARE: Asia, China,ÿShanxi Linxian
!! Ethnic Group: Han
!! WI, 162
!!!SCT: J0197
!!!YEM: Copyright 1995, estate of Helmut Schaffrath.
**kern
*ICvox
*Ivox
*M2/4
*k[f#]
*G:
{8b
8dd
8b
8dd
=1
8gg
16ee
16gg
4dd
=2
8b
8g
4a
=3
8gg
16ee
16gg
4dd
=4
8b
8g
4a}
=5
{4a
4dd
=6
4dd
4g
=7
8a
8dd
4g
=8
8g
8b
8a
8g
=9
8g
8d
4g}
==
!!!AGN: Xiaodiao, Duihua. Qingge
!!!ONB: ESAC (Essen Associative Code) Database: CHINA
!!!AMT: simple duple
!!!AIN: vox
!!!EED: Helmut Schaffrath
!!!EEV: 1.0
*-
